X:10
T:Melchsee-Juiz. 1996  C 2+
S:Margrit Spichtig-Hofer (6.9.1962)
S:Dirigenten-Notiz  Edi Gasser
%C:Unterwalden (CH)
%P:ABAC
R:Naturjodel
M:4/4
L:1/4
K:C
[P:A] "getragen" G/2F/2 | E>DEG | c3G/2E/2 | F>Ade | f4 | G>GBd | 
g3a | g2df | e3G/2F/2 | E>DEG | c3G/2E/2 | 
F>Ade | f4 | G>GBd | g3a | gfe2 | edc2 || 
L:1/8
M:4/4
[P:B] "lÃ¼pfig" G2EFG2e2 | fgfed4 | F2DEF2d2 | efedc4 | G2 EFG2e2  | 
fgfed4 | F2DE FGed | c6z2 | G2EFG2e2 | fgfed4 | F2DEF2 d2 | 
efedc4 | G2EFG2e2 | fgfed4 | F2DE FGed | c6z2 || 
L:1/4
M:4/4
[P:C] "nicht zu schnell" F2Ac | f2ed | E2Gc | e2dc | d2BA | G2df | e2c2 | G3z | 
F2Ac | f2ed | E2Gc | e2dc | d2BA | Gged | c3z | 
F2Ac | f2ed | E2Gc | e2dc | d2BA | G2df | e2c2 | G3z | 
F2Ac | f2ed | E2Gc | e2dc | d2BA | Gged | c3z |] 
W:
W:Reihenfolge: A - B - A - C
%W:notiert Edi Gasser. Angaben: Margrit Spichtig
%W:UJV-Naturjodelsammlung: Code-Nr: 50-05
%W:http://www.naturjodler.ch/code 50.htm  (with AUDIO )
%Juni 18, 2018

